X: 428
T: Liuxia yiyanyan liaogege
%%abc-version 2.0
%%abcx-abcm2ps-target-version 5.9.1 (29 Sep 2008)
%%abc-creator hum2abc beta
%%abcx-conversion-date 2013/10/02 07:52:30
%%abc-edited-by Helmut Schaffrath
%%humdrum-veritas 1507581806
%%humdrum-veritas-data 790555194
%%continueall 1
%%barnumbers 0
L: 1/16
M: 2/4
K: F
A2 F G A f2 A [I:setbarnb 1]| 
F G A G F D C2 | 
A2 c2 G F2 D | 
G8 | 
A2 F G A f2 A | 
F G A G F D C2 | 
A2> c2 G F2 D | 
C8 |]  



